X:1
T:Benson, CMD
T:Benson, CMD
T:Anonymous, ca. 1900
T:Public Domain Courtesy of the Cyber Hymnal™
C:Anonymous, ca. 1900
Z:Public Domain
Z:Courtesy of the Cyber Hymnal™
%%score ( 1 2 ) 3
L:1/8
Q:1/4=90
M:6/8
K:F
V:1 treble 
V:2 treble 
V:3 bass 
V:1
 ([Cc][B,G])[A,F] (GD)[G,E] | [A,F]2 [CA] [A,C]2 C | (DE)[B,F] (EF)[B,EG] | F3- ([B,D] [A,CF]2) C | %4
 ([CA][B,G])[A,F] (GD)[G,E] | [A,F]2 [CA] [G,C]3 | (DE)[B,F] (EF)[B,EG] | F3- ([B,D] [A,CF]2) z | %8
 [EG][FA][EG] ([Ac][G=B])[FA] | [EG]2 [DF] [CE]2 [EG] | ([EG][FA])[EG] [Ac][G=B][FA] | %11
 A3 ([CF] [CEG]3) | ecA [_E=B]2 [EA] | [DG]2 [DF] [CE]2 [B,E] | (F>E)[A,D] [G,CD]2 [F,=B,E] | %15
 [E,G,C]4 z2 |] %16
V:2
 x3 B,2 x | x5 C | B,2 B,2 x2 | ([A,C]2 C) x4 | x3 B,2 x | x6 | B,2 B,2 x2 | [A,C]2 x5 | x6 | x6 | %10
 x6 | [CF]2 x5 | _E3 x3 | x6 | A,2 x4 | x6 |] %16
V:3
 F,,2 F,, F,,2 F,, | F,,2 F,, F,,2 F,, | B,,2 G,, C,2 C,, | (F,,2 B,, F,,2) z x | %4
 F,,2 F,, F,,2 F,, | F,,2 F,, F,,2 F,, | B,,2 G,, C,2 C,, | (F,,2 B,, F,,2) z x | C,2 C, C,2 C, | %9
 C,2 C, C,2 C, | C,2 C, C,2 C, | (C,2 C, C,2) C, x | [C,G,]3 [C,^F,]2 [C,F,] | %13
 [=B,,G,]2 [B,,G,] [C,G,]2 [C,G,] | [F,,F,]3 G,,2 G,, | [C,,G,,]4 z2 |] %16

